!!!OTL: Éamonn an chnuic, S.150
!!!id: I0554
**kern
*clefG2
*k[f#c#g#d#]
*E:
{8B
8c#
=1
8.e
16f#
8g#
8f#
4e
8e
8f#
=2
8g#
8ee
8dd#
8b
4cc#
8b
8g#
=3
4f#
8g#
8e
4.f#
8e
=4
2e
4e
=5
16eeee
16eeee}
{8.B
16c#
=6
8.e
16f#
8g#
8f#
4.e
8f#
=7
8g#
8ee
8dd#
8b
4cc#
8b
8g#
=8
8.f#
16g#
8.b
16g#
4.f#
8e
=9
2e
4e
=10
16ffff#
16eeee}
{8b
8cc#
8dd#
16e
=11
8.ee
16dd#
8cc#
8b
4ff#
8ee
8ee
=12
4dd#
8.cc#
16b
4b
8ee
8dd#
=13
8cc#
8b
8g#
8f#
8.e
16f#
8g#
8b
=14
16cc#
16e
16gggg#
16eeee}
{8B
8c#
=15
8.e
16f#
8g#
8f#
4e
8e
8f#
=16
8g#
8ee
8dd#
8b
4cc#
8b
8g#
=17
8.f#
16g#
8b
8g#
4.f#
8e
=18
2e
4e}
==
*-
!!!minrhy: 16
!!!meters: 4/4 ]  ZZ[4
!!!cut: Éamonn an chnuic, S.150
!!!reg: Irland
!!!trd: O'SULLIVAN, Donal: Song of the Irish
!!!rhy1: X_X_  X_.XX_X_X__X_X_  X_X_X_X_X__X_X_  X__X_X_X__.X_  X___X__
!!!rhy2: X_.X  X_.XX_X_X__.X_  X_X_X_X_X__X_X_  X_.XX_.XX__.X_  X___X__
!!!key: I0554  16  E 4/4 ]  ZZ[4
!!!mod: SECHSTONSKALA DUR ?] AMBITUS[12
!!!kad: 11+11
!!!akz: 11362211_11362211_+1+275616+1_11362211_
!!!fot: 'a__av_b__av_
!!!for: 'a__b__c__d__
!!!fok: '^a_Ma_~a_Ma_
!! PHRAS[AUFTAKTIG]
!!!fkt: historisches Lied
!!!bem: Melismen
!! IRISCHE V
!! PR[6] 2K[8] 2G[17] 3K[3] 3G[1] 4A[1] 4Ü[0] 5A[0] 6K[1] 6G[0]
!! 7K[0] 7G[0] 8A[4] MEHR[0] SI[35] ABS[78] SR[24] SP[10]
!! ST[16] 2k[17] 2g[40] 3k[1] 3g[0] 4d[0] 4ü[0] 5d[0] 6k[1] 6g[0]
!! 7k[0] 7g[0] 8d[0] mehr[0] si[59] dm[-24] sr[56] sp[3]
!! 1F[22] 2F[53] 3F[6] 4F[5] LF[0] 2P[2] 3P[5] 4P[0] TRI[0] DF[7] AB[83]
!! TF[0] U3K[0] U3[0] U4[0] U4Ü[0] U5[6] U6K[0] U6[9] U7K[0] U7[9]
!! N1[14] N2K[0] N2[9] N3K[0] N3[9] N4[5] N4Ü[0] N5[13] N6K[0] N6[10]
!!!n7k: 0] N7[10] O1[6] O2K[0] O2[0] O3K[0] O3[0] HÖ[0
